docs/.gitbook/assets/icon-link-16@light.svg

<svg width="32" height="32" viewBox="0 0 16 16" fill="none" xmlns="http://www.w3.org/2000/svg">
<rect x="0" y="0" width="16" height="16" fill="#fff"/>
<path fill-rule="evenodd" clip-rule="evenodd" d="M9.13846 1.99335C10.484 0.663935 12.6524 0.6689 13.9917 2.00825C15.3311 3.34761 15.3361 5.51604 14.0066 6.86154L12.3078 8.7514C12.0308 9.05944 11.5566 9.08468 11.2486 8.80776C10.9406 8.53085 10.9153 8.05665 11.1922 7.7486L12.9037 5.8448C12.9125 5.83491 12.9217 5.82526 12.9311 5.81586C13.6896 5.05731 13.6896 3.82746 12.9311 3.06891C12.1725 2.31036 10.9427 2.31036 10.1841 3.06891C10.1747 3.07831 10.1651 3.08746 10.1552 3.09635L8.2514 4.80776C7.94335 5.08468 7.46915 5.05944 7.19224 4.7514C6.91532 4.44335 6.94056 3.96915 7.2486 3.69224L9.13846 1.99335ZM9.78033 6.21967C10.0732 6.51256 10.0732 6.98744 9.78033 7.28033L7.28033 9.78033C6.98744 10.0732 6.51256 10.0732 6.21967 9.78033C5.92678 9.48744 5.92678 9.01256 6.21967 8.71967L8.71967 6.21967C9.01256 5.92678 9.48744 5.92678 9.78033 6.21967ZM4.7514 7.19224C5.05944 7.46915 5.08468 7.94335 4.80776 8.2514L3.09635 10.1552C3.08746 10.1651 3.07831 10.1747 3.06891 10.1841C2.31036 10.9427 2.31036 12.1725 3.06891 12.9311C3.82746 13.6896 5.05731 13.6896 5.81586 12.9311C5.82526 12.9217 5.83491 12.9125 5.8448 12.9037L7.7486 11.1922C8.05665 10.9153 8.53085 10.9406 8.80776 11.2486C9.08468 11.5566 9.05944 12.0308 8.7514 12.3078L6.86153 14.0067C5.51603 15.3361 3.3476 15.3311 2.00825 13.9917C0.6689 12.6524 0.663935 10.484 1.99335 9.13846L3.69224 7.2486C3.96915 6.94056 4.44335 6.91532 4.7514 7.19224Z" fill="#000"/>
</svg>

<svg xmlns="http://www.w3.org/2000/svg" width="32" height="32" fill="none" viewBox="0 0 16 16"><path fill="#fff" d="M0 0h16v16H0z"/><path fill="#000" fill-rule="evenodd" d="M9.138 1.993a3.442 3.442 0 0 1 4.869 4.869l-1.7 1.89a.75.75 0 0 1-1.115-1.003l1.712-1.904.027-.03a1.942 1.942 0 1 0-2.776-2.719L8.251 4.808A.75.75 0 1 1 7.25 3.692zM9.78 6.22a.75.75 0 0 1 0 1.06l-2.5 2.5a.75.75 0 0 1-1.06-1.06l2.5-2.5a.75.75 0 0 1 1.06 0m-5.029.972a.75.75 0 0 1 .057 1.06l-1.712 1.903-.027.03a1.942 1.942 0 1 0 2.776 2.719l1.904-1.712a.75.75 0 0 1 1.002 1.116l-1.89 1.699a3.442 3.442 0 0 1-4.868-4.869l1.7-1.89a.75.75 0 0 1 1.058-.056" clip-rule="evenodd"/></svg>
